static/logos/zapier-wordmark-color.svg

<svg width="100" height="45" viewBox="0 0 100 45" fill="none" xmlns="http://www.w3.org/2000/svg">
<g clip-path="url(#clip0_1_338)">
<path fill-rule="evenodd" clip-rule="evenodd" d="M67.0885 5.21886H63.4279L66.0161 2.64532C65.8128 2.36117 65.5858 2.09454 65.3382 1.84866C65.0912 1.60279 64.8231 1.37768 64.5377 1.17528L61.949 3.74883V0.109392C61.6107 0.0529519 61.262 0.0231097 60.9079 0.0224609H60.9004C60.5458 0.0231097 60.1977 0.0529519 59.8593 0.109392V3.74883L57.2707 1.17528C56.9852 1.37768 56.7171 1.60279 56.4701 1.84866L56.469 1.84996C56.2215 2.09519 55.9955 2.36117 55.7923 2.64532L58.3809 5.21886H54.7204C54.7204 5.21886 54.6328 5.90203 54.6328 6.25554V6.26008C54.6328 6.613 54.6631 6.96008 54.7204 7.29749H58.3809L55.7923 9.87035C56.1998 10.4386 56.6993 10.9362 57.2707 11.3404L59.8593 8.76684V12.4062C60.1977 12.4627 60.5452 12.4926 60.8993 12.4932H60.9085C61.2625 12.4926 61.6112 12.4627 61.949 12.4062V8.76684L64.5382 11.3404C64.8231 11.1386 65.0912 10.9129 65.3382 10.6669H65.3388C65.5858 10.4211 65.8128 10.1545 66.0161 9.87035L63.4274 7.29749H67.0885C67.1447 6.96073 67.175 6.61495 67.175 6.26203V6.25365C67.175 5.90068 67.1447 5.55554 67.0885 5.21886ZM62.2312 7.57705C62.3863 7.16705 62.4717 6.72397 62.4717 6.26078V6.25495C62.4717 5.7917 62.3863 5.34798 62.2312 4.93862C61.8193 4.78422 61.3734 4.69923 60.9074 4.69923H60.9009C60.4355 4.69923 59.989 4.78422 59.5766 4.93862C59.422 5.34798 59.3366 5.7917 59.3361 6.25495V6.26078C59.3366 6.72397 59.422 7.16765 59.5771 7.57705C59.989 7.73143 60.4355 7.81641 60.9009 7.81641H60.9074C61.3734 7.81641 61.8193 7.73143 62.2312 7.57705Z" fill="#FF4600"/>
<path fill-rule="evenodd" clip-rule="evenodd" d="M73.2118 31.7246C72.1664 30.7482 71.6189 29.2081 71.5681 27.1042H84.7529C84.7778 26.8292 84.8032 26.4983 84.828 26.1091C84.8535 25.7211 84.8664 25.352 84.8664 25.001C84.8664 23.7236 84.6897 22.5409 84.3372 21.4518C83.9848 20.3625 83.4686 19.4238 82.7891 18.6349C82.1086 17.8461 81.2648 17.2265 80.2572 16.7756C79.2502 16.3248 78.0789 16.099 76.7443 16.099C75.1821 16.099 73.8286 16.3682 72.6826 16.9067C71.5367 17.4458 70.5859 18.1717 69.8302 19.0852C69.0756 19.9999 68.5145 21.0761 68.1497 22.3152C67.7843 23.5556 67.6016 24.8888 67.6016 26.3154C67.6016 27.7686 67.7907 29.1017 68.1686 30.3161C68.5464 31.5306 69.1448 32.5828 69.9632 33.4716C70.781 34.3604 71.821 35.0487 73.0799 35.5372C74.3383 36.0258 75.8497 36.2696 77.6135 36.2696C78.8221 36.2696 79.9232 36.1814 80.9189 36.0069C81.9129 35.8311 82.8264 35.569 83.6578 35.218C83.6318 34.6919 83.5572 34.1606 83.4313 33.6215C83.3043 33.083 83.1416 32.6263 82.9394 32.2507C81.3275 32.8767 79.6286 33.1901 77.8399 33.1901C75.7994 33.1901 74.2572 32.7009 73.2118 31.7246ZM81.1648 24.3257C81.1648 23.6244 81.0697 22.9549 80.881 22.3152C80.6918 21.6768 80.4145 21.1202 80.0497 20.6441C79.6843 20.1686 79.2189 19.7864 78.6518 19.4991C78.0853 19.211 77.4113 19.0664 76.6308 19.0664C75.094 19.0664 73.9172 19.5302 73.0978 20.4566C72.2799 21.383 71.7826 22.6727 71.6059 24.3257H81.1648Z" fill="#FF4600"/>
<path fill-rule="evenodd" clip-rule="evenodd" d="M37.9141 16.5496C38.1653 16.5003 38.4236 16.4626 38.6879 16.4373C38.9528 16.4127 39.2229 16.3997 39.5002 16.3997C39.7515 16.3997 40.0163 16.4127 40.2937 16.4373C40.5703 16.4626 40.8352 16.5003 41.087 16.5496C41.1119 16.6008 41.1438 16.7566 41.181 17.02C41.2189 17.2827 41.2568 17.5642 41.2946 17.8646C41.3324 18.1649 41.3703 18.4536 41.4081 18.7287C41.446 19.0044 41.4642 19.1796 41.4642 19.2548C41.7161 18.8539 42.0182 18.466 42.3712 18.0903C42.7235 17.7147 43.1463 17.3761 43.637 17.0763C44.1277 16.7753 44.6816 16.5379 45.2996 16.3627C45.9155 16.1876 46.602 16.0994 47.3582 16.0994C48.4909 16.0994 49.5427 16.2875 50.513 16.6631C51.4819 17.0387 52.3125 17.6207 53.0055 18.4089C53.6975 19.1984 54.2396 20.2 54.6304 21.4139C55.0201 22.6296 55.2152 24.062 55.2152 25.715C55.2152 29.0203 54.3147 31.6062 52.5148 33.4713C50.7133 35.3371 48.164 36.27 44.8643 36.27C44.3104 36.27 43.744 36.2324 43.1646 36.1571C42.5845 36.0819 42.0815 35.9813 41.6534 35.8567V44.6835C41.3514 44.7328 41.0303 44.7704 40.6904 44.7957C40.3504 44.8204 40.0411 44.8334 39.7645 44.8334C39.4871 44.8334 39.1792 44.8204 38.8392 44.7957C38.4993 44.7704 38.1907 44.7328 37.9141 44.6835V16.5496ZM43.1268 33.0393C42.623 32.9647 42.1311 32.8395 41.6534 32.6636V24.8515C41.6534 23.8991 41.7918 23.0804 42.0697 22.3908C42.3464 21.7026 42.7111 21.1323 43.1646 20.6814C43.6181 20.2306 44.1336 19.8926 44.7136 19.6681C45.2924 19.4423 45.8972 19.3294 46.5269 19.3294C48.2136 19.3294 49.4292 19.9185 50.1724 21.0947C50.9149 22.2721 51.2868 23.8622 51.2868 25.8655C51.2868 27.1176 51.1289 28.2003 50.8144 29.1137C50.4992 30.0284 50.0712 30.7855 49.5296 31.3862C48.9888 31.9876 48.3402 32.4333 47.5846 32.7201C46.829 33.0081 45.9984 33.1522 45.0914 33.1522C44.2849 33.1522 43.6305 33.1139 43.1268 33.0393Z" fill="#FF4600"/>
<path fill-rule="evenodd" clip-rule="evenodd" d="M30.1653 23.1233C30.1653 21.6455 29.7876 20.6191 29.032 20.043C28.2764 19.4676 27.1809 19.1796 25.7453 19.1796C24.8632 19.1796 24.0391 19.249 23.2711 19.3859C22.5025 19.5241 21.7528 19.705 21.0233 19.9302C20.5444 19.1037 20.3056 18.1156 20.3056 16.9628C21.161 16.6878 22.1051 16.475 23.1386 16.3245C24.1709 16.174 25.1653 16.0994 26.1232 16.0994C28.6411 16.0994 30.5555 16.6696 31.8651 17.8082C33.1746 18.948 33.8297 20.7696 33.8297 23.2731V35.3307C32.9483 35.5311 31.8782 35.7374 30.6189 35.9502C29.3589 36.1623 28.0742 36.2694 26.7652 36.2694C25.5307 36.2694 24.417 36.1571 23.4219 35.9314C22.4268 35.7056 21.5832 35.3436 20.8909 34.8415C20.1979 34.342 19.6629 33.7023 19.2851 32.9264C18.9073 32.1505 18.7188 31.2118 18.7188 30.1089C18.7188 29.0333 18.9386 28.0874 19.3797 27.2733C19.8201 26.4604 20.4185 25.7838 21.174 25.2453C21.9296 24.7075 22.7987 24.306 23.7807 24.0439C24.7634 23.7804 25.7956 23.6488 26.8788 23.6488C27.6846 23.6488 28.3456 23.6682 28.8617 23.7052C29.3778 23.7435 29.8123 23.7869 30.1653 23.8369V23.1233ZM28.7299 26.6168C29.3093 26.6674 29.7876 26.7167 30.1653 26.7666V32.8894C29.6865 33.0147 29.139 33.108 28.5218 33.1703C27.9051 33.2339 27.3068 33.265 26.7274 33.265C26.2746 33.265 25.7956 33.2404 25.2919 33.1897C24.7882 33.1392 24.3289 33.0016 23.9132 32.7766C23.4976 32.5508 23.1511 32.2257 22.8744 31.7995C22.5965 31.3746 22.4588 30.7855 22.4588 30.0343C22.4588 28.8582 22.8672 27.9817 23.6868 27.405C24.5044 26.8295 25.6945 26.5408 27.2565 26.5408C27.6591 26.5408 28.1504 26.5668 28.7299 26.6168Z" fill="#FF4600"/>
<path d="M0.734375 35.2935L10.9348 19.5174H1.94344C1.86775 19.0665 1.8299 18.5664 1.8299 18.015C1.8299 17.4894 1.86775 17.0003 1.94344 16.5494H16.4881L16.6767 17.0385L6.40125 32.8517H16.0347C16.1097 33.3531 16.1482 33.8656 16.1482 34.3911C16.1482 34.8932 16.1097 35.3681 16.0347 35.8196H0.923597L0.734375 35.2935Z" fill="#FF4600"/>
<path d="M59.8565 19.4798H57.4008C57.3505 19.2793 57.3127 19.0477 57.2878 18.785C57.2624 18.5222 57.25 18.2653 57.25 18.015C57.25 17.7652 57.2624 17.5076 57.2878 17.2449C57.3127 16.9821 57.3505 16.7505 57.4008 16.5494H63.5219V35.8196C63.2435 35.8689 62.9359 35.9059 62.5959 35.9312C62.2559 35.9558 61.9468 35.9688 61.67 35.9688C61.4181 35.9688 61.1214 35.9558 60.7824 35.9312C60.4419 35.9059 60.1332 35.8689 59.8565 35.8196V19.4798Z" fill="#FF4600"/>
<path d="M89.7779 16.4375C89.526 16.4628 89.2611 16.5004 88.9844 16.5497V35.8192C89.2865 35.8685 89.6076 35.9062 89.9482 35.9315C90.2882 35.956 90.5957 35.9691 90.8741 35.9691C91.1498 35.9691 91.4595 35.956 91.7984 35.9315C92.139 35.9062 92.4476 35.8685 92.7249 35.8192V26.2405C92.7249 24.9392 92.8692 23.8746 93.159 23.0488C93.4482 22.2223 93.839 21.5709 94.3298 21.0948C94.8211 20.6192 95.3746 20.2877 95.9925 20.0996C96.6098 19.9121 97.2579 19.818 97.9384 19.818H98.4476C98.6611 19.818 98.8687 19.8433 99.0714 19.8926C99.1217 19.5929 99.166 19.2796 99.2038 18.9539C99.2411 18.6289 99.26 18.3155 99.26 18.0152C99.26 17.7395 99.2471 17.4767 99.2222 17.2263C99.1968 16.9765 99.159 16.7378 99.1087 16.5121C98.9584 16.4881 98.7746 16.4692 98.5611 16.4562C98.3471 16.4433 98.139 16.4375 97.9384 16.4375C96.5779 16.4375 95.4633 16.7508 94.5946 17.3762C93.726 18.0022 93.0265 18.7417 92.4984 19.5929C92.4984 19.1667 92.4595 18.6477 92.3844 18.0333C92.3092 17.4209 92.233 16.9253 92.1579 16.5497C91.9314 16.5004 91.679 16.4628 91.4022 16.4375C91.1249 16.4128 90.8482 16.3998 90.5714 16.3998C90.2941 16.3998 90.0292 16.4128 89.7779 16.4375Z" fill="#FF4600"/>
</g>
<defs>
<clipPath id="clip0_1_338">
<rect width="100" height="44.8649" fill="white"/>
</clipPath>
</defs>
</svg>

<svg xmlns="http://www.w3.org/2000/svg" width="142.222" height="64" fill="none" viewBox="0 0 100 45"><g fill="#FF4600" clip-path="url(#a)"><path fill-rule="evenodd" d="M67.088 5.219h-3.66l2.588-2.574a6.242 6.242 0 0 0-1.478-1.47L61.949 3.75V.109a6.403 6.403 0 0 0-1.041-.087H60.9c-.354.001-.702.031-1.04.087v3.64l-2.59-2.574a6.295 6.295 0 0 0-.8.674l-.001.001a6.176 6.176 0 0 0-.677.795l2.589 2.574h-3.66s-.088.683-.088 1.037v.004c0 .353.03.7.087 1.037h3.66L55.793 9.87a6.292 6.292 0 0 0 1.479 1.47l2.588-2.573v3.64c.339.056.686.086 1.04.086h.01c.354 0 .702-.03 1.04-.087v-3.64l2.59 2.574a6.28 6.28 0 0 0 1.478-1.47l-2.59-2.573h3.661c.057-.336.087-.682.087-1.035v-.008c0-.353-.03-.698-.087-1.035Zm-4.857 2.358c.155-.41.24-.853.24-1.316v-.006c0-.463-.085-.907-.24-1.316a3.763 3.763 0 0 0-1.324-.24h-.006a3.77 3.77 0 0 0-1.324.24 3.73 3.73 0 0 0-.24 1.316v.006c0 .463.085.907.24 1.316.412.154.858.24 1.324.24h.006c.466 0 .912-.086 1.324-.24ZM73.212 31.725c-1.046-.977-1.593-2.517-1.644-4.62h13.185c.025-.276.05-.607.075-.996.025-.388.038-.757.038-1.108 0-1.277-.176-2.46-.529-3.55-.352-1.088-.868-2.027-1.548-2.816a7.145 7.145 0 0 0-2.532-1.86c-1.007-.45-2.178-.676-3.513-.676-1.562 0-2.915.27-4.061.808-1.146.539-2.097 1.265-2.853 2.178-.754.915-1.316 1.991-1.68 3.23-.366 1.24-.548 2.574-.548 4 0 1.454.189 2.787.567 4.001.377 1.215.976 2.267 1.794 3.156.818.888 1.858 1.577 3.117 2.065 1.258.489 2.77.733 4.534.733 1.208 0 2.31-.089 3.305-.263a12.722 12.722 0 0 0 2.739-.789 8.944 8.944 0 0 0-.227-1.597c-.127-.538-.29-.995-.492-1.37-1.611.626-3.31.94-5.1.94-2.04 0-3.582-.49-4.627-1.466Zm7.953-7.4c0-.7-.095-1.37-.284-2.01a5.099 5.099 0 0 0-.831-1.67 4.031 4.031 0 0 0-1.398-1.146c-.567-.288-1.24-.433-2.021-.433-1.537 0-2.714.464-3.533 1.39-.818.927-1.315 2.217-1.492 3.87h9.559ZM37.914 16.55a7.955 7.955 0 0 1 1.586-.15c.252 0 .516.013.794.037.276.026.541.063.793.113.025.05.057.207.094.47.038.263.076.544.114.845.037.3.075.589.113.864.038.275.056.45.056.526.252-.401.554-.789.907-1.165a6.041 6.041 0 0 1 1.266-1.014 6.607 6.607 0 0 1 1.663-.713 7.52 7.52 0 0 1 2.058-.264c1.133 0 2.185.189 3.155.564.969.376 1.8.958 2.492 1.746.692.79 1.235 1.791 1.625 3.005.39 1.216.585 2.648.585 4.301 0 3.305-.9 5.891-2.7 7.756-1.802 1.866-4.351 2.799-7.65 2.799-.555 0-1.121-.038-1.7-.113a10.102 10.102 0 0 1-1.512-.3v8.827a12.92 12.92 0 0 1-1.889.15c-.277 0-.585-.014-.925-.038a9.19 9.19 0 0 1-.925-.112V16.55Zm5.213 16.49a7.387 7.387 0 0 1-1.474-.376V24.85c0-.952.139-1.77.417-2.46.276-.688.641-1.259 1.095-1.71.453-.45.969-.788 1.549-1.013a4.947 4.947 0 0 1 1.813-.339c1.687 0 2.902.59 3.645 1.766.743 1.177 1.115 2.767 1.115 4.77 0 1.253-.158 2.335-.473 3.249-.315.914-.743 1.671-1.284 2.272a4.939 4.939 0 0 1-1.945 1.334c-.756.288-1.587.432-2.494.432-.806 0-1.46-.038-1.964-.113ZM30.165 23.123c0-1.478-.377-2.504-1.133-3.08-.756-.575-1.851-.863-3.287-.863-.882 0-1.706.069-2.474.206-.768.138-1.518.319-2.248.544-.479-.826-.717-1.814-.717-2.967.855-.275 1.8-.488 2.833-.639a20.686 20.686 0 0 1 2.984-.225c2.518 0 4.432.57 5.742 1.71 1.31 1.139 1.965 2.96 1.965 5.464v12.058c-.882.2-1.952.406-3.211.62-1.26.211-2.545.318-3.854.318-1.234 0-2.348-.112-3.343-.338-.995-.225-1.839-.587-2.531-1.09a5.046 5.046 0 0 1-1.606-1.915c-.378-.776-.566-1.714-.566-2.817 0-1.076.22-2.022.66-2.836a5.928 5.928 0 0 1 1.795-2.028 8.017 8.017 0 0 1 2.607-1.201 11.91 11.91 0 0 1 3.098-.395c.806 0 1.467.02 1.983.056.516.039.95.082 1.303.132v-.714Zm-1.435 3.494c.58.05 1.058.1 1.435.15v6.122a10.83 10.83 0 0 1-1.643.281c-.617.064-1.215.095-1.795.095-.452 0-.931-.025-1.435-.075a3.623 3.623 0 0 1-1.379-.413 2.856 2.856 0 0 1-1.039-.978c-.277-.424-.415-1.014-.415-1.765 0-1.176.408-2.052 1.228-2.629.817-.576 2.008-.864 3.57-.864.402 0 .893.026 1.473.076Z" clip-rule="evenodd"/><path d="m.734 35.294 10.2-15.777h-8.99a9.107 9.107 0 0 1-.114-1.502c0-.526.038-1.015.113-1.466h14.545l.189.49L6.4 32.852h9.634c.075.501.113 1.014.113 1.54a8.7 8.7 0 0 1-.113 1.428H.924l-.19-.526ZM59.856 19.48h-2.455a4.7 4.7 0 0 1-.113-.695 8.006 8.006 0 0 1 0-1.54c.025-.263.063-.495.113-.696h6.12v19.27a9.28 9.28 0 0 1-.925.112c-.34.025-.65.038-.926.038-.252 0-.549-.013-.888-.038a9.199 9.199 0 0 1-.925-.111V19.48ZM89.778 16.438c-.252.025-.517.062-.794.112v19.27a12.993 12.993 0 0 0 1.89.15c.276 0 .586-.014.924-.038.341-.026.65-.064.927-.113V26.24c0-1.3.144-2.365.434-3.191.29-.827.68-1.478 1.17-1.954a4.073 4.073 0 0 1 1.664-.995 6.656 6.656 0 0 1 1.945-.282h.51c.213 0 .42.025.623.075.05-.3.095-.613.133-.94a8.247 8.247 0 0 0 .018-1.727 6.146 6.146 0 0 0-.113-.714 5.78 5.78 0 0 0-.548-.056 10.356 10.356 0 0 0-.623-.018c-1.36 0-2.475.313-3.343.938a7.789 7.789 0 0 0-2.097 2.217c0-.426-.038-.945-.114-1.56a20.785 20.785 0 0 0-.226-1.483 6.243 6.243 0 0 0-.756-.113 9.357 9.357 0 0 0-.83-.037 8.12 8.12 0 0 0-.794.038Z"/></g><defs><clipPath id="a"><path fill="#fff" d="M0 0h100v44.865H0z"/></clipPath></defs></svg>
